svgs/sharp-solid/binoculars.svg

<svg xmlns="http://www.w3.org/2000/svg" viewBox="0 0 512 512"><!--! Font Awesome Pro 6.6.0 by @fontawesome - https://fontawesome.com License - https://fontawesome.com/license (Commercial License) Copyright 2024 Fonticons, Inc. --><path d="M192 32l0 64L96 96l0-64 96 0zm0 96l0 352L0 480 0 336l48-80L64 128l128 0zm128 0l128 0 16 128 48 80 0 144-192 0 0-352zm0-96l96 0 0 64-96 0 0-64zm-32 96l0 160-64 0 0-160 64 0z"/></svg>

<svg xmlns="http://www.w3.org/2000/svg" viewBox="0 0 512 512"><!--! Font Awesome Pro 6.4.2 by @fontawesome - https://fontawesome.com License - https://fontawesome.com/license (Commercial License) Copyright 2023 Fonticons, Inc. --><path d="M192 32V96H96V32h96zm0 96V480H0V336l48-80L64 128H192zm128 0H448l16 128 48 80V480H320V128zm0-96h96V96H320V32zm-32 96V288H224V128h64z"/></svg>
